X: 17220
T: Her Long Dark Hair Flowing Down Her Back
R: hornpipe
M: 4/4
K: Dmajor
g3 a gecG|cege g2 eg|a3 b ageg|ageg a2 ba|
g2 eg d2 ed|cdeg a2 ge|eged cAdc|1 A2 GB ABce:|2 A2 AG Aeed||
(3 cBA BG AcBA|GEDE G2 EG|(3 cBA BG ABcd|eg g2 aged|
(3 cBA BG AcBA|GEDE G2 EG|AG (3 ABc BAGB|1 A2 AG Aeed:|2 A2 GB ABce||

